!!!OTL: Graf und Nonne (Die Nonne)
!!!OTL-incipit:Stand ich auf hohe Berge,
!!!ARE: Europa, Mitteleuropa, Deutschland (BRD), Franken, Haselbach v.d. Rhoen
!!!YOR: 8, S. 84
!!    1935 aufgezeichnet
!!!SCT: Q0155b
!!!TXL: @@DE
!!!YEM: Copyright 1995, estate of Helmut Schaffrath.
**kern	**text
*ICvox	*
*M3/4	*
*k[b-]	*
*F:	*
{4c	Stand
=1	=1
4.f	ich
8g	auf
8aL	ho-
8b-J	-he
=2	=2
4a	Ber-
4f}	-ge,
{(8fL	sah
8gJ)	.
=3	=3
4.a	in
8g	den
8aL	tie-
8b-J	-fen
=4	=4
2cc}	Rhein,
{4cc	sah
=5	=5
4.dd	ich
8cc	ein
8b-L	Schiff-
8ddJ	-lein
=6	=6
4cc	schwe-
4a}	-ben,
{(8fL	drei
8aJ)	.
=7	=7
4.cc	Rit-
8a	-ter
8b-L	sa-
8ccJ	-ßen
=8	=8
4a	d'rein,
4r}	.
{4f	sah
=9	=9
4.dd	ich
8dd	ein
8ffL	Schiff-
8ddJ	lein
=10	=10
4cc	schwe-
4a}	-ben,
{(8fL	drei
8aJ)	.
=11	=11
4.cc	Rit-
8dd	-ter
8ccL	sa-
8b-J	-ßen
=12	=12
4a	drein.
4r}	.
==	==
!!!AGN: Ballade, Standesunterschied, vergebliche Werbung, Liebe, Klage
!! Gleiche Informantin wie in Q0155a.
!!!ONB: ESAC (Essen Associative Code) Database: BALLADE
!!!AMT: simple triple
!!!AIN: vox
!!!EED: Helmut Schaffrath
!!!EEV: 1.0
!!@@COMMENT:"Vorgesungen von Veronika Reder in Haselbach v. d. Rhön, 1935
!!(Sammlung Carl Hartenstein; DVa - A 166 443)"
!!@@END:
!!!source: Deutsche Volkslieder mit ihren Melodien. Herausgegeben vom Deutschen Volksliedarchiv. Achter Teil. Freiburg/Breisgau 1988.
!!!page: 84
!!!ENC: Anna Maria Matuszewska
!!!EEV: 2025/03/10
*-	*-
